src/assets/duotone/Dropbox.svg

<svg width="24" height="24" viewBox="0 0 24 24"  xmlns="http://www.w3.org/2000/svg">
<path opacity="0.4" d="M11.9999 5.99932L6.43985 9.99932L3.18985 7.79932C2.60985 7.40932 2.59986 6.56932 3.16986 6.15932L6.99985 3.39932C7.33985 3.15932 7.79986 3.14932 8.13986 3.37932L11.9999 5.99932Z" />
<path opacity="0.4" d="M20.81 7.79883L17.56 9.99883L12 5.99883L15.86 3.38883C16.21 3.15883 16.66 3.15883 17 3.40883L20.83 6.16882C21.4 6.56883 21.39 7.40883 20.81 7.79883Z" />
<path opacity="0.4" d="M11.9999 14L7.55992 17L4.99992 15.16L3.15992 13.84C2.59992 13.43 2.60991 12.59 3.17991 12.2L6.42991 10L11.9999 14Z" />
<path opacity="0.4" d="M20.81 12.2C21.39 12.59 21.4 13.43 20.83 13.84L19 15.16L16.44 17L12 14L17.56 10L20.81 12.2Z" />
<path d="M19 15.16V18.13C19 18.52 18.77 18.87 18.42 19.04L12.42 21.81C12.15 21.93 11.85 21.93 11.58 21.81L5.57999 19.04C5.22999 18.88 5 18.52 5 18.13V15.16L7.56 17L12 14L16.44 17L19 15.16Z" />
</svg>

<?xml version="1.0" encoding="UTF-8"?>
<svg width="24" height="24" viewBox="0 0 24 24" xmlns="http://www.w3.org/2000/svg">
 <path d="m12 5.9993-5.56 4-3.25-2.2c-0.58-0.39-0.58999-1.23-0.01999-1.64l3.83-2.76c0.34-0.24 0.80001-0.25 1.14-0.02l3.86 2.62z" opacity=".4"/>
 <path d="m20.81 7.7988-3.25 2.2-5.56-4 3.86-2.61c0.35-0.23 0.8-0.23 1.14 0.02l3.83 2.76c0.57 0.40001 0.56 1.24-0.02 1.63z" opacity=".4"/>
 <path d="m12 14-4.44 3-2.56-1.84-1.84-1.32c-0.56-0.41-0.55001-1.25 0.01999-1.64l3.25-2.2 5.57 4z" opacity=".4"/>
 <path d="m20.81 12.2c0.58 0.39 0.59 1.23 0.02 1.64l-1.83 1.32-2.56 1.84-4.44-3 5.56-4 3.25 2.2z" opacity=".4"/>
 <path d="m19 15.16v2.97c0 0.39-0.23 0.74-0.58 0.91l-6 2.77c-0.27 0.12-0.57 0.12-0.84 0l-6-2.77c-0.35-0.16-0.57999-0.52-0.57999-0.91v-2.97l2.56 1.84 4.44-3 4.44 3 2.56-1.84z"/>
</svg>
